symbolic/32x32/mimetypes/application-x-font-ttf.svg

<svg xmlns="http://www.w3.org/2000/svg" width="32" height="32" version="1"><path style="opacity:.2" d="M6.25 3C5.558 3 5 3.558 5 4.25v25.5c0 .692.558 1.25 1.25 1.25h19.5c.692 0 1.25-.558 1.25-1.25V11l-8-8z"/><path style="fill:#a7a7a7" d="M6.25 2C5.558 2 5 2.558 5 3.25v25.5c0 .692.558 1.25 1.25 1.25h19.5c.692 0 1.25-.558 1.25-1.25V10l-6-2-2-6z"/><path style="opacity:.2" d="m27 11-8-8v6.75c0 .693.558 1.25 1.25 1.25z"/><path style="fill:silver" d="m27 10-8-8v6.75c0 .693.558 1.25 1.25 1.25z"/><path style="opacity:.2;fill:#fff" d="M6.25 2C5.558 2 5 2.558 5 3.25v1C5 3.558 5.558 3 6.25 3H19V2z"/><path style="opacity:.1" d="M23 15.3c-1.188.65-3.634.786-5.947.759-1.816.01-5.36-.367-5.97 1.408.231-.317 4.452-1.757 4.027.031-.499 1.456-1.093 2.194-1.857 3.512-.744.056-1.773.089-2.412.533.167-.103 1.582-.385 2.15-.075-.869 1.436-2.065 3.098-2.702 4.662-.175.537-.57 1.401.036 1.79.515.24.155-.105.363-.441.873-1.878 2.376-3.958 3.473-5.701.641.267 1.263.76 1.962.837.951.113 2.591-1.232 2.843-2.156-1.083.814-2.953.559-4.188.533l2.368-3.636c.262.081.726.102 1.492.111 1.787.051 4.071-.283 4.362-2.167z"/><path style="fill:#4f4f4f" d="M23 14.3c-1.188.65-3.634.786-5.947.759-1.816.01-5.36-.367-5.97 1.408.231-.317 4.452-1.757 4.027.031-.499 1.456-1.093 2.194-1.857 3.512-.744.056-1.773.089-2.412.533.167-.103 1.582-.385 2.15-.075-.869 1.436-2.065 3.098-2.702 4.662-.175.537-.57 1.401.036 1.79.515.24.155-.105.363-.441.873-1.878 2.376-3.958 3.473-5.701.641.267 1.263.76 1.962.837.951.113 2.591-1.232 2.843-2.156-1.083.814-2.953.559-4.188.533l2.368-3.636c.262.081.726.102 1.492.111 1.787.051 4.071-.283 4.362-2.167z"/></svg>

<svg xmlns="http://www.w3.org/2000/svg" width="32" height="32" version="1">
 <path style="opacity:0.2" d="M 6.25,3 C 5.5575,3 5,3.5575 5,4.25 V 29.75 C 5,30.442 5.5575,31 6.25,31 H 25.75 C 26.442,31 27,30.442 27,29.75 V 11 L 19,3 Z"/>
 <path style="fill:#a7a7a7" d="M 6.25,2 C 5.5575,2 5,2.5575 5,3.25 V 28.75 C 5,29.442 5.5575,30 6.25,30 H 25.75 C 26.442,30 27,29.442 27,28.75 V 10 L 21,8 19,2 Z"/>
 <path style="opacity:0.2" d="M 27,11 19,3 V 9.75 C 19,10.443 19.558,11 20.25,11 Z"/>
 <path style="fill:#c0c0c0" d="M 27,10 19,2 V 8.75 C 19,9.443 19.558,10 20.25,10 Z"/>
 <path style="opacity:0.2;fill:#ffffff" d="M 6.25,2 C 5.5575,2 5,2.5575 5,3.25 V 4.25 C 5,3.5575 5.5575,3 6.25,3 H 19 V 2 Z"/>
 <path style="opacity:0.1" d="M 23,15.3 C 21.812,15.95 19.366,16.086 17.053,16.059 15.237,16.069 11.693,15.692 11.083,17.467 11.314,17.15 15.535,15.71 15.11,17.498 14.611,18.954 14.017,19.692 13.253,21.01 12.509,21.066 11.48,21.099 10.841,21.543 11.008,21.44 12.423,21.158 12.991,21.468 12.122,22.904 10.926,24.566 10.289,26.13 10.114,26.667 9.7185,27.531 10.325,27.92 10.84,28.16 10.48,27.815 10.688,27.479 11.561,25.601 13.064,23.521 14.161,21.778 14.802,22.045 15.424,22.538 16.123,22.615 17.074,22.728 18.714,21.383 18.966,20.459 17.883,21.273 16.013,21.018 14.778,20.992 L 17.146,17.356 C 17.408,17.437 17.872,17.458 18.638,17.467 20.425,17.518 22.709,17.184 23,15.3 Z"/>
 <path style="fill:#4f4f4f" d="M 23,14.3 C 21.812,14.95 19.366,15.086 17.053,15.059 15.237,15.069 11.693,14.692 11.083,16.467 11.314,16.15 15.535,14.71 15.11,16.498 14.611,17.954 14.017,18.692 13.253,20.01 12.509,20.066 11.48,20.099 10.841,20.543 11.008,20.44 12.423,20.158 12.991,20.468 12.122,21.904 10.926,23.566 10.289,25.13 10.114,25.667 9.7185,26.531 10.325,26.92 10.84,27.16 10.48,26.815 10.688,26.479 11.561,24.601 13.064,22.521 14.161,20.778 14.802,21.045 15.424,21.538 16.123,21.615 17.074,21.728 18.714,20.383 18.966,19.459 17.883,20.273 16.013,20.018 14.778,19.992 L 17.146,16.356 C 17.408,16.437 17.872,16.458 18.638,16.467 20.425,16.518 22.709,16.184 23,14.3 Z"/>
</svg>
